icons/styledcomponents.svg

<!--
  - The MIT License (MIT)
  -
  - Copyright (c) 2015-2024 Elior "Mallowigi" Boukhobza
  -
  - Permission is hereby granted, free of charge, to any person obtaining a copy
  - of this software and associated documentation files (the "Software"), to deal
  - in the Software without restriction, including without limitation the rights
  - to use, copy, modify, merge, publish, distribute, sublicense, and/or sell
  - copies of the Software, and to permit persons to whom the Software is
  - furnished to do so, subject to the following conditions:
  -
  - The above copyright notice and this permission notice shall be included in all
  - copies or substantial portions of the Software.
  -
  - THE SOFTWARE IS PROVIDED "AS IS", WITHOUT WARRANTY OF ANY KIND, EXPRESS OR
  - IMPLIED, INCLUDING BUT NOT LIMITED TO THE WARRANTIES OF MERCHANTABILITY,
  - FITNESS FOR A PARTICULAR PURPOSE AND NONINFRINGEMENT. IN NO EVENT SHALL THE
  - AUTHORS OR COPYRIGHT HOLDERS BE LIABLE FOR ANY CLAIM, DAMAGES OR OTHER
  - LIABILITY, WHETHER IN AN ACTION OF CONTRACT, TORT OR OTHERWISE, ARISING FROM,
  - OUT OF OR IN CONNECTION WITH THE SOFTWARE OR THE USE OR OTHER DEALINGS IN THE
  - SOFTWARE.
  -
  -->

<svg version="1.1" xmlns="http://www.w3.org/2000/svg" viewBox="0 0 512 512" width="16px" height="16px">
  <path fill="#F06292" data-iconColor="Styled Components"
        d="M128.3923187,245.844223c-2.0006332,25.1821747,20.1226044,43.7289581,35.2209015,43.7289581c15.1183929-0.7039795,74.0012817-50.3247681,74.0012817-50.3247681c27.6941833-35.0258179,27.8144226-50.5993195,27.8144226-62.8411865C263.1181946,122.3653107,164.6588287,204.6786194,128.3923187,245.844223z M371.9573364,224.9264374c13.3643188-28.2860718-4.616394-59.7038727-43.7280273-32.1088104c-31.0805054,19.7546997-71.3176575,60.392868-90.5743103,76.3005676c-8.9318848,18.0408936,13.709198,67.5510864,49.5897217,41.4095459C329.6556702,279.7156067,360.6256409,250.7425537,371.9573364,224.9264374z M408.3573914,53.8140755L416.9686279,0H512v98.2340088l-34.8270264,0.4158325L435.2381592,240.684494c2.6099854,50.1272125-22.8096008,50.9437408-26.0568237,73.9447174c-8.1614685,57.8103638-72.8106689,105.1114502-97.5272217,105.1114502c-16.4852295-0.4781189-28.536499-19.3716125-32.5836792-35.8358459c46.4796143-51.4093323,108.9837952-91.8113098,108.9837952-91.8113098c3.9032593-27.0368652-4.6752625-35.6441345,24.1730347-58.6837616l27.5281677-144.7380371C416.2441711,73.1468124,405.2745667,73.3879013,408.3573914,53.8140755z M222.869873,293.513855c24.1022339,48.5646362,58.927124,49.8310547,112.9198608-11.9985352c1.2836914,5.7158813,2.6879272,11.7051392,0.109436,26.0842896C226.0648193,405.8389893,122.6154785,501.4510498,91.1260986,512H0v-24.4407959C14.8198853,467.0081177,136.447876,366.6885986,222.869873,293.513855z M385.1978149,387.5437622C380.2531128,429.5804443,341.9286499,466.3630981,290.7155151,512H128.4122314l136.8272095-115.2553711C288.8598022,450.5002441,330.8127441,442.7125854,385.1978149,387.5437622z M193.2601318,292.1309204L0,456.8539429V349.9845581l113.7296143-92.5857544C119.8138428,291.8602295,157.0846558,322.2045898,193.2601318,292.1309204z"/>
</svg>

<svg xmlns="http://www.w3.org/2000/svg" viewBox="0 0 512 512"><path fill="#f06292" d="M128.392 245.844c-2 25.182 20.123 43.73 35.221 43.73 15.119-.705 74.002-50.326 74.002-50.326 27.694-35.025 27.814-50.599 27.814-62.84-2.31-54.043-100.77 28.27-137.037 69.436m243.565-20.918c13.365-28.286-4.616-59.703-43.728-32.108-31.08 19.754-71.317 60.392-90.574 76.3-8.932 18.041 13.71 67.551 49.59 41.41 42.41-30.812 73.38-59.785 84.712-85.602m36.4-171.112L416.97 0H512v98.234l-34.827.416-41.935 142.034c2.61 50.128-22.81 50.944-26.057 73.945-8.161 57.81-72.81 105.112-97.527 105.112-16.485-.478-28.536-19.372-32.584-35.836 46.48-51.41 108.984-91.811 108.984-91.811 3.903-27.037-4.675-35.645 24.173-58.684l27.528-144.738c-23.51-15.525-34.48-15.284-31.398-34.858m-185.487 239.7c24.102 48.564 58.927 49.83 112.92-11.999 1.283 5.716 2.688 11.705.11 26.085C226.064 405.839 122.614 501.45 91.125 512H0v-24.44c14.82-20.552 136.448-120.871 222.87-194.046m162.328 94.03c-4.945 42.036-43.27 78.82-94.482 124.456H128.412L265.24 396.745c23.62 53.755 65.574 45.968 119.959-9.201M193.26 292.13 0 456.854v-106.87L113.73 257.4c6.084 34.461 43.355 64.806 79.53 34.732" data-iconColor="Styled Components"/></svg>
